components/2.0/icon/icons/icon-zoom-in-22px.svg

<svg width="22" height="22" xmlns="http://www.w3.org/2000/svg"><g fill="#3D4752" fill-rule="evenodd"><path d="M8.5 1C4.5 1 1 4.4 1 8.5c0 4 3.4 7.5 7.5 7.5 4 0 7.5-3.4 7.5-7.5 0-4-3.4-7.5-7.5-7.5zm0 13C5.5 14 3 11.5 3 8.5S5.5 3 8.5 3 14 5.5 14 8.5 11.5 14 8.5 14zM20 18l-3.4-3.6c-.6-.6-1.5-.6-2 0-.7.6-.7 1.5 0 2L18 20c.3.3.7.4 1 .4.5 0 1 0 1.2-.4.4-.5.4-1.5 0-2z"/><path d="M9 5H8v3H5v1h3v3h1V9h3V8H9V5z"/></g></svg>

<?xml version="1.0" encoding="UTF-8" standalone="no"?>
<svg width="22px" height="22px" viewBox="0 0 22 22" version="1.1" xmlns="http://www.w3.org/2000/svg" xmlns:xlink="http://www.w3.org/1999/xlink" xmlns:sketch="http://www.bohemiancoding.com/sketch/ns">
    <!-- Generator: Sketch 3.4.4 (17249) - http://www.bohemiancoding.com/sketch -->
    <title>icon-zoom-in-22px</title>
    <desc>Created with Sketch.</desc>
    <defs></defs>
    <g id="22px" stroke="none" stroke-width="1" fill="none" fill-rule="evenodd" sketch:type="MSPage">
        <g id="icon-zoom-in-22px" sketch:type="MSArtboardGroup" fill="#3D4752">
            <path d="M8.5,1 C4.4,1 1,4.4 1,8.5 C1,12.6 4.4,16 8.5,16 C12.6,16 16,12.6 16,8.5 C16,4.4 12.6,1 8.5,1 L8.5,1 Z M8.5,14 C5.5,14 3,11.5 3,8.5 C3,5.5 5.5,3 8.5,3 C11.5,3 14,5.5 14,8.5 C14,11.5 11.5,14 8.5,14 L8.5,14 Z" id="Shape" sketch:type="MSShapeGroup"></path>
            <path d="M20.1,17.9 L16.6,14.4 C16,13.8 15.1,13.8 14.5,14.4 C13.9,15 13.9,15.9 14.5,16.5 L18,20 C18.3,20.3 18.7,20.4 19.1,20.4 C19.5,20.4 19.9,20.3 20.2,20 C20.6,19.5 20.6,18.5 20.1,17.9 L20.1,17.9 Z" id="Shape" sketch:type="MSShapeGroup"></path>
            <path d="M9,5 L8,5 L8,8 L5,8 L5,9 L8,9 L8,12 L9,12 L9,9 L12,9 L12,8 L9,8 L9,5 Z" id="Shape" sketch:type="MSShapeGroup"></path>
        </g>
    </g>
</svg>
